ubuntu-mono-light/status/24/ibus-keyboard.svg

<?xml version="1.0" encoding="UTF-8" standalone="no"?>
<!-- Created with Inkscape (http://www.inkscape.org/) -->
<svg
   xmlns:dc="http://purl.org/dc/elements/1.1/"
   xmlns:cc="http://creativecommons.org/ns#"
   xmlns:rdf="http://www.w3.org/1999/02/22-rdf-syntax-ns#"
   xmlns:svg="http://www.w3.org/2000/svg"
   xmlns="http://www.w3.org/2000/svg"
   xmlns:sodipodi="http://sodipodi.sourceforge.net/DTD/sodipodi-0.dtd"
   xmlns:inkscape="http://www.inkscape.org/namespaces/inkscape"
   version="1.0"
   width="24"
   height="24"
   id="svg3225"
   sodipodi:version="0.32"
   inkscape:version="0.46"
   sodipodi:docname="drawing.svg"
   inkscape:output_extension="org.inkscape.output.svg.inkscape">
  <metadata
     id="metadata8">
    <rdf:RDF>
      <cc:Work
         rdf:about="">
        <dc:format>image/svg+xml</dc:format>
        <dc:type
           rdf:resource="http://purl.org/dc/dcmitype/StillImage" />
      </cc:Work>
    </rdf:RDF>
  </metadata>
  <sodipodi:namedview
     inkscape:window-height="706"
     inkscape:window-width="640"
     inkscape:pageshadow="2"
     inkscape:pageopacity="0.0"
     guidetolerance="10.0"
     gridtolerance="10.0"
     objecttolerance="10.0"
     borderopacity="1.0"
     bordercolor="#666666"
     pagecolor="#ffffff"
     id="base"
     showgrid="false"
     inkscape:zoom="15.5625"
     inkscape:cx="16"
     inkscape:cy="16"
     inkscape:window-x="399"
     inkscape:window-y="51"
     inkscape:current-layer="svg3225" />
  <defs
     id="defs3227">
    <inkscape:perspective
       sodipodi:type="inkscape:persp3d"
       inkscape:vp_x="0 : 16 : 1"
       inkscape:vp_y="0 : 1000 : 0"
       inkscape:vp_z="32 : 16 : 1"
       inkscape:persp3d-origin="16 : 10.666667 : 1"
       id="perspective10" />
  </defs>
  <g
     id="layer1">
    <path
       d="M 10.8125,2 C 10.335582,2.0931654 9.9935645,2.5141101 10,3 L 10,5 L 4.21875,5 C 2.5020774,5 1,6.2946416 1,8 L 1,16 C 1,17.705358 2.5020775,19 4.21875,19 L 19.78125,19 C 21.497922,19 23,17.705359 23,16 L 23,8 C 23,6.2946415 21.497922,5 19.78125,5 L 18,5 L 18,4 C 17.997083,3.4489282 17.551072,3.0029173 17,3 C 17,3 15.888889,3 15,3 C 14.997083,2.4489282 14.551072,2.0029173 14,2 L 11,2 C 10.937636,1.994159 10.874864,1.994159 10.8125,2 L 10.8125,2 z M 4.125,8 C 4.125,8.0244576 4.088756,8 4.21875,8 C 4.1918737,8.0658861 4.1422578,8.1177164 4.125,8.1875 L 4.125,8 z M 19.78125,8 C 19.911241,8 19.875,8.0244592 19.875,8 L 19.875,8.1875 C 19.857742,8.1177164 19.808126,8.0658861 19.78125,8 z M 4.125,9.8125 C 4.1863144,10.06043 4.2371347,10.314878 4.40625,10.5 C 4.2371347,10.685122 4.1863144,10.93957 4.125,11.1875 L 4.125,9.8125 z M 19.875,9.8125 L 19.875,11.1875 C 19.813686,10.93957 19.762865,10.685122 19.59375,10.5 C 19.762865,10.314878 19.813686,10.06043 19.875,9.8125 z M 4.125,12.8125 C 4.286915,13.467218 4.8030653,14 5.5,14 L 6.21875,14 C 6.1486094,14.171947 6,14.306139 6,14.5 L 6,15.5 C 6,15.693861 6.1486094,15.828053 6.21875,16 L 4.21875,16 C 4.0887558,16 4.125,15.975543 4.125,16 L 4.125,12.8125 z M 19.875,12.8125 L 19.875,16 C 19.875,15.975542 19.911243,16 19.78125,16 L 17.78125,16 C 17.851391,15.828053 18,15.693861 18,15.5 L 18,14.5 C 18,14.306139 17.851391,14.171947 17.78125,14 L 18.5,14 C 19.196935,14 19.713085,13.467218 19.875,12.8125 z"
       id="path3219"
       style="opacity:0.6;fill:#eae3d0;fill-opacity:1;fill-rule:evenodd;stroke:none;stroke-width:1.69999993;stroke-linecap:round;stroke-linejoin:miter;marker:none;marker-start:none;marker-mid:none;marker-end:none;stroke-miterlimit:4;stroke-dasharray:none;stroke-dashoffset:0;stroke-opacity:1;visibility:visible;display:inline;overflow:visible;enable-background:accumulate" />
    <path
       d="M 11,3 L 11,6 L 4.21875,6 C 2.9876388,6 2,6.892 2,8 L 2,16 C 2,17.108 2.9876389,18 4.21875,18 L 19.78125,18 C 21.01236,18 22,17.108 22,16 L 22,8 C 22,6.892 21.012361,6 19.78125,6 L 12,6 L 12,4 L 13,4 L 13,5 L 17,5 L 17,4 C 17,4 14,4 14,4 L 14,3 L 11,3 z M 4.21875,7 L 19.78125,7 C 20.396804,7 20.875,7.446 20.875,8 L 20.875,16 C 20.875,16.554 20.396805,17 19.78125,17 L 4.21875,17 C 3.6031944,17 3.125,16.554 3.125,16 L 3.125,8 C 3.1249999,7.446 3.6031945,7 4.21875,7 z M 5.5,8 C 5.223,8 5,8.223 5,8.5 L 5,9.5 C 5,9.777 5.223,10 5.5,10 L 6.5,10 C 6.777,10 7,9.777 7,9.5 L 7,8.5 C 7,8.223 6.777,8 6.5,8 L 5.5,8 z M 8.5,8 C 8.223,8 8,8.223 8,8.5 L 8,9.5 C 8,9.777 8.223,10 8.5,10 L 9.5,10 C 9.777,10 10,9.777 10,9.5 L 10,8.5 C 10,8.223 9.777,8 9.5,8 L 8.5,8 z M 11.5,8 C 11.223,8 11,8.223 11,8.5 L 11,9.5 C 11,9.777 11.223,10 11.5,10 L 12.5,10 C 12.777,10 13,9.777 13,9.5 L 13,8.5 C 13,8.223 12.777,8 12.5,8 L 11.5,8 z M 14.5,8 C 14.223,8 14,8.223 14,8.5 L 14,9.5 C 14,9.777 14.223,10 14.5,10 L 15.5,10 C 15.777,10 16,9.777 16,9.5 L 16,8.5 C 16,8.223 15.777,8 15.5,8 L 14.5,8 z M 17.5,8 C 17.223,8 17,8.223 17,8.5 L 17,9.5 C 17,9.777 17.223,10 17.5,10 L 18.5,10 C 18.777,10 19,9.777 19,9.5 L 19,8.5 C 19,8.223 18.777,8 18.5,8 L 17.5,8 z M 5.5,11 C 5.223,11 5,11.223 5,11.5 L 5,12.5 C 5,12.777 5.223,13 5.5,13 L 6.5,13 C 6.777,13 7,12.777 7,12.5 L 7,11.5 C 7,11.223 6.777,11 6.5,11 L 5.5,11 z M 8.5,11 C 8.223,11 8,11.223 8,11.5 L 8,12.5 C 8,12.777 8.223,13 8.5,13 L 9.5,13 C 9.777,13 10,12.777 10,12.5 L 10,11.5 C 10,11.223 9.777,11 9.5,11 L 8.5,11 z M 11.5,11 C 11.223,11 11,11.223 11,11.5 L 11,12.5 C 11,12.777 11.223,13 11.5,13 L 12.5,13 C 12.777,13 13,12.777 13,12.5 L 13,11.5 C 13,11.223 12.777,11 12.5,11 L 11.5,11 z M 14.5,11 C 14.223,11 14,11.223 14,11.5 L 14,12.5 C 14,12.777 14.223,13 14.5,13 L 15.5,13 C 15.777,13 16,12.777 16,12.5 L 16,11.5 C 16,11.223 15.777,11 15.5,11 L 14.5,11 z M 17.5,11 C 17.223,11 17,11.223 17,11.5 L 17,12.5 C 17,12.777 17.223,13 17.5,13 L 18.5,13 C 18.777,13 19,12.777 19,12.5 L 19,11.5 C 19,11.223 18.777,11 18.5,11 L 17.5,11 z M 7.5,14 C 7.223,14 7,14.223 7,14.5 L 7,15.5 C 7,15.777 7.223,16 7.5,16 L 16.5,16 C 16.777,16 17,15.777 17,15.5 L 17,14.5 C 17,14.223 16.777,14 16.5,14 L 7.5,14 z"
       id="rect2396"
       style="opacity:1;fill:#3a3935;fill-opacity:1;fill-rule:evenodd;stroke:none;stroke-width:1.69999993;stroke-linecap:round;stroke-linejoin:miter;marker:none;marker-start:none;marker-mid:none;marker-end:none;stroke-miterlimit:4;stroke-dasharray:none;stroke-dashoffset:0;stroke-opacity:1;visibility:visible;display:inline;overflow:visible;enable-background:accumulate" />
  </g>
</svg>

<?xml version="1.0" encoding="UTF-8" standalone="no"?>
<!-- Created with Inkscape (http://www.inkscape.org/) -->

<svg
   xmlns:svg="http://www.w3.org/2000/svg"
   xmlns="http://www.w3.org/2000/svg"
   version="1.0"
   width="24"
   height="24"
   id="svg3225">
  <defs
     id="defs3227" />
  <g
     transform="translate(1,2)"
     id="g3615"
     style="opacity:0.3">
    <rect
       width="1.623428"
       height="1.611037"
       ry="0.38089144"
       x="4.1456728"
       y="7.2185087"
       id="rect2819"
       style="fill:none;stroke:#000000;stroke-width:0.5;stroke-miterlimit:4;stroke-opacity:1;stroke-dasharray:none" />
    <rect
       width="1.623428"
       height="1.611037"
       ry="0.38089144"
       x="10.145673"
       y="7.2185087"
       id="rect3593"
       style="fill:none;stroke:#000000;stroke-width:0.5;stroke-miterlimit:4;stroke-opacity:1;stroke-dasharray:none" />
    <rect
       width="1.623428"
       height="1.611037"
       ry="0.38089144"
       x="16.145672"
       y="7.2185087"
       id="rect3595"
       style="fill:none;stroke:#000000;stroke-width:0.5;stroke-miterlimit:4;stroke-opacity:1;stroke-dasharray:none" />
    <rect
       width="1.623428"
       height="1.611037"
       ry="0.38089144"
       x="4.1456728"
       y="10.218963"
       id="rect3597"
       style="fill:none;stroke:#000000;stroke-width:0.5;stroke-miterlimit:4;stroke-opacity:1;stroke-dasharray:none" />
    <rect
       width="1.623428"
       height="1.611037"
       ry="0.38089144"
       x="10.145673"
       y="10.218963"
       id="rect3599"
       style="fill:none;stroke:#000000;stroke-width:0.5;stroke-miterlimit:4;stroke-opacity:1;stroke-dasharray:none" />
    <rect
       width="1.623428"
       height="1.611037"
       ry="0.38089144"
       x="16.145672"
       y="10.218963"
       id="rect3601"
       style="fill:none;stroke:#000000;stroke-width:0.5;stroke-miterlimit:4;stroke-opacity:1;stroke-dasharray:none" />
    <rect
       width="1.623428"
       height="1.611037"
       ry="0.38089144"
       x="7.1459999"
       y="7.2185087"
       id="rect3603"
       style="fill:none;stroke:#000000;stroke-width:0.5;stroke-miterlimit:4;stroke-opacity:1;stroke-dasharray:none" />
    <rect
       width="1.623428"
       height="1.611037"
       ry="0.38089144"
       x="7.1459999"
       y="10.218963"
       id="rect3605"
       style="fill:none;stroke:#000000;stroke-width:0.5;stroke-miterlimit:4;stroke-opacity:1;stroke-dasharray:none" />
    <rect
       width="1.623428"
       height="1.611037"
       ry="0.38089144"
       x="13.146"
       y="7.2185087"
       id="rect3607"
       style="fill:none;stroke:#000000;stroke-width:0.5;stroke-miterlimit:4;stroke-opacity:1;stroke-dasharray:none" />
    <rect
       width="1.623428"
       height="1.611037"
       ry="0.38089144"
       x="13.146"
       y="10.218963"
       id="rect3609"
       style="fill:none;stroke:#000000;stroke-width:0.5;stroke-miterlimit:4;stroke-opacity:1;stroke-dasharray:none" />
    <rect
       width="9.5336552"
       height="1.5213989"
       ry="0.29125711"
       x="6.2441564"
       y="13.240917"
       id="rect3613"
       style="fill:none;stroke:#000000;stroke-width:0.5;stroke-miterlimit:4;stroke-opacity:1;stroke-dasharray:none" />
  </g>
  <g
     transform="translate(0,1)"
     id="layer1">
    <path
       d="M 10.8125,2 C 10.335582,2.0931654 9.9935645,2.5141101 10,3 L 10,5 4.21875,5 C 2.5020774,5 1,6.2946416 1,8 L 4,7 20,7 20,17 4,17 4,7 1,8 1,16 c 0,1.705358 1.5020775,3 3.21875,3 l 15.5625,0 C 21.497922,19 23,17.705359 23,16 L 23,8 C 23,6.2946415 21.497922,5 19.78125,5 L 18,5 18,4 C 17.997083,3.4489282 17.551072,3.0029173 17,3 17,3 15.888889,3 15,3 14.997083,2.4489282 14.551072,2.0029173 14,2 L 11,2 C 10.93764,1.99416 10.874864,1.99416 10.8125,2 l 0,0 z"
       id="path3219"
       style="opacity:0.6;fill:#eae3d0;fill-opacity:1;fill-rule:evenodd;stroke:none;stroke-width:1.70000005;marker:none;visibility:visible;display:inline;overflow:visible" />
    <path
       d="M 11,3 11,6 4.21875,6 C 2.9876388,6 2,6.892 2,8 l 0,8 c 0,1.108 0.9876389,2 2.21875,2 l 15.5625,0 C 21.01236,18 22,17.108 22,16 L 22,8 C 22,6.892 21.012361,6 19.78125,6 L 12,6 l 0,-2 1,0 0,1 4,0 0,-1 c 0,0 -3,0 -3,0 L 14,3 11,3 z M 5.5,8 C 5.223,8 5,8.223 5,8.5 l 0,1 C 5,9.777 5.223,10 5.5,10 l 1,0 C 6.777,10 7,9.777 7,9.5 l 0,-1 C 7,8.223 6.777,8 6.5,8 l -1,0 z m 3,0 C 8.223,8 8,8.223 8,8.5 l 0,1 C 8,9.777 8.223,10 8.5,10 l 1,0 C 9.777,10 10,9.777 10,9.5 l 0,-1 C 10,8.223 9.777,8 9.5,8 l -1,0 z m 3,0 C 11.223,8 11,8.223 11,8.5 l 0,1 c 0,0.277 0.223,0.5 0.5,0.5 l 1,0 C 12.777,10 13,9.777 13,9.5 l 0,-1 C 13,8.223 12.777,8 12.5,8 l -1,0 z m 3,0 C 14.223,8 14,8.223 14,8.5 l 0,1 c 0,0.277 0.223,0.5 0.5,0.5 l 1,0 C 15.777,10 16,9.777 16,9.5 l 0,-1 C 16,8.223 15.777,8 15.5,8 l -1,0 z m 3,0 C 17.223,8 17,8.223 17,8.5 l 0,1 c 0,0.277 0.223,0.5 0.5,0.5 l 1,0 C 18.777,10 19,9.777 19,9.5 l 0,-1 C 19,8.223 18.777,8 18.5,8 l -1,0 z m -12,3 C 5.223,11 5,11.223 5,11.5 l 0,1 C 5,12.777 5.223,13 5.5,13 l 1,0 C 6.777,13 7,12.777 7,12.5 l 0,-1 C 7,11.223 6.777,11 6.5,11 l -1,0 z m 3,0 C 8.223,11 8,11.223 8,11.5 l 0,1 C 8,12.777 8.223,13 8.5,13 l 1,0 C 9.777,13 10,12.777 10,12.5 l 0,-1 C 10,11.223 9.777,11 9.5,11 l -1,0 z m 3,0 C 11.223,11 11,11.223 11,11.5 l 0,1 c 0,0.277 0.223,0.5 0.5,0.5 l 1,0 c 0.277,0 0.5,-0.223 0.5,-0.5 l 0,-1 C 13,11.223 12.777,11 12.5,11 l -1,0 z m 3,0 C 14.223,11 14,11.223 14,11.5 l 0,1 c 0,0.277 0.223,0.5 0.5,0.5 l 1,0 c 0.277,0 0.5,-0.223 0.5,-0.5 l 0,-1 C 16,11.223 15.777,11 15.5,11 l -1,0 z m 3,0 C 17.223,11 17,11.223 17,11.5 l 0,1 c 0,0.277 0.223,0.5 0.5,0.5 l 1,0 c 0.277,0 0.5,-0.223 0.5,-0.5 l 0,-1 C 19,11.223 18.777,11 18.5,11 l -1,0 z m -10,3 C 7.223,14 7,14.223 7,14.5 l 0,1 C 7,15.777 7.223,16 7.5,16 l 9,0 c 0.277,0 0.5,-0.223 0.5,-0.5 l 0,-1 C 17,14.223 16.777,14 16.5,14 l -9,0 z"
       id="rect2396"
       style="fill:#3a3935;fill-opacity:1;fill-rule:evenodd;stroke:none;stroke-width:1.70000005;marker:none;visibility:visible;display:inline;overflow:visible" />
  </g>
</svg>
